X:1
T:Flying Home to Shelley
C:Paul Glitlitz
R:Reel
M:C|
%%printtempo 0
Q:180
K:G
"G"DGdG cGBG| "Am"DGcG BGAG| "Bm"DGAG BGAG| "C"DEGD "D"EDB,D|
"G"DGdD cGBG| "Am"DGcG BGAG| "Bm"DGAG "Am"BGAG|1 "D"DEFD "G"G4:|2 "D"DEFD "G"GABc|:
"G"d3B AGAB| "Am"c3B AGE2| "C"e3d "(Bm)"BAG2| "Am"ABdA "D"BAGB|
"Em"d3B AGAB| "Am"cGBG AGE2| "C"e3d "Am"BAG2|1 "D"ABAF "G"GABc:|2 "D"ABAF "G"G4|]
